X:1
T: Miss Flora MacDonald's Reel
C:
R:Reel
Q: 232
K:Em
M:4/4
L:1/8
|:F|E2 EF BE EF|E2 EF dF DF|E2 EF EF GA|B1/2c1/2d Ad FD DF|
E2 EF BE EF|E2 EF dF DF|E2 EF EF GA|B1/2c1/2d Ad FD DF|
Ee e^d eE EF|Ee ec dD DF|Ee ed Bc de|f1/2g1/2a ef dD AF|
Ee e^d eE EF|Ee ec dD DF|Ee ed Bc de|1fa ef dD AF:|2fa gf e2 e||
